src/static/logos/rollbar.svg

<?xml version="1.0" encoding="UTF-8" standalone="no"?>
<svg width="256px" height="201px" viewBox="0 0 256 201" version="1.1" xmlns="http://www.w3.org/2000/svg" xmlns:xlink="http://www.w3.org/1999/xlink" preserveAspectRatio="xMidYMid">
	<g>
		<path d="M256,21.9277945 C255.538724,10.330272 255.211191,-7.31205289 229.397475,3.23276923 C186.328216,19.0602827 143.010577,34.3025058 100.330263,51.148452 C67.9904469,63.9179259 32.569089,77.9100674 14.336404,146.26431 C9.55987718,164.173922 4.77925623,182.087646 0,200 L41.0549301,200 C44.9184579,185.514405 48.7847151,171.030181 52.6496076,156.544587 C65.7045377,107.595393 91.3462982,97.4700065 114.755374,88.2273527 C148.349369,74.9699083 182.390993,62.8556307 216.29205,50.3973064 L216.29205,200 C229.529853,200 242.764927,200 256,200 L256,21.9277945 Z" fill="#3A4757"></path>
		<path d="M98.9821277,108.153907 C94.8057872,110.475609 90.8119149,113.167694 87.0658723,116.502503 C74.445617,127.733822 67.6044255,143.767865 63.3164255,159.778758 L52.5208511,200.057907 L98.9821277,200.057907 L98.9821277,108.153907 L98.9821277,108.153907 Z" fill="#F7941E"></path>
		<path d="M150.721362,87.1292263 C139.977532,91.1367156 129.259574,95.2150135 118.58383,99.409056 C115.729702,100.53246 112.910979,101.644971 110.145362,102.813311 L110.145362,200.057907 L150.721362,200.057907 L150.721362,87.1292263 L150.721362,87.1292263 Z" fill="#BFD730"></path>
		<path d="M204.651574,200.057907 L204.651574,67.3913539 C190.390468,72.5753539 176.11983,77.7375667 161.883234,82.9896518 L161.883234,200.057907 L204.651574,200.057907 L204.651574,200.057907 L204.651574,200.057907 Z" fill="#00BAD9"></path>
	</g>
</svg>

<svg width="256" height="201" xmlns="http://www.w3.org/2000/svg" preserveAspectRatio="xMidYMid"><path d="M256 21.928c-.461-11.598-.789-29.24-26.603-18.695-43.069 15.827-86.386 31.07-129.067 47.915-32.34 12.77-67.76 26.762-85.994 95.116C9.56 164.174 4.78 182.088 0 200h41.055c3.863-14.486 7.73-28.97 11.595-43.455 13.055-48.95 38.696-59.075 62.105-68.318 33.594-13.257 67.636-25.371 101.537-37.83V200H256V21.928z" fill="#3A4757"/><path d="M98.982 108.154c-4.176 2.322-8.17 5.014-11.916 8.349-12.62 11.23-19.462 27.265-23.75 43.276l-10.795 40.279h46.461v-91.904z" fill="#F7941E"/><path d="M150.721 87.13a1986.965 1986.965 0 00-32.137 12.28c-2.854 1.122-5.673 2.235-8.439 3.403v97.245h40.576V87.129z" fill="#BFD730"/><path d="M204.652 200.058V67.39c-14.262 5.184-28.532 10.347-42.769 15.599v117.068h42.769z" fill="#00BAD9"/></svg>
